X:1
T:Title
%%score ( 1 2 ) { 3 | 4 }
L:1/8
Q:1/4=82
M:6/8
K:Ab
V:1 treble nm="Grand Piano, Soprano"
V:2 treble 
V:3 bass nm="Choir Pad, Diamond Bar, 99.99 D"
V:4 bass 
V:1
 [Ec][DB]>[DF] [DG] [CA]2 | [CA] [DA]2 [DF] [CE]2 | [Ec] [EB]2 E[EG][EA] | [EB] [Ec]2 [EA] [EB]2 | %4
w: By~Charles~Edward~Prior,~1886 * * * *||||
 [Ec][DB]>F [DG] [CA]2 | [CA]/[CA]/ [DA]2 [DF] [CE]2 | [Ec]ce [Fd] [Ec]2 | %7
w: |||
 [EA]/[EA]/AB [EG] [EA]2 | [Ec][DB]>[DB] [CA] [DG]2 | z .F2 z3 | [Ec][EB]>[EB] [EA] [EG]2 | %11
w: ||||
 [EB]BF [=DG] E2 | E[Ed]>c [EB] [Ec]2 | [Ec][Fe]>d [Fc] [Fd]2 | [Fd][Ed]>[Ec] [EB] [Ee]2 | %15
w: ||||
 [CA][CA][Ec] [DB] [CA]2- | [CA]6 |] %17
w: ||
V:2
 x6 | x6 | x6 | x6 | x6 | x6 | z E2 z3 | z E2 z3 | x6 | [DF]C-[CE] [A,C] [CE]2 | x6 | z =D2 z3 | %12
 x6 | x6 | x6 | x6 | x6 |] %17
V:3
 A,G,>B, E, E,2 | E, F,2 A, A,2 | A, G,2 G,B,A, | G, A,2 A, G,2 | A,G,>B, E, E,2 | %5
 E,/E,/ F,2 A, A,2 | A, A,2 A, A,2 | C/C/CD D C2 | A,G,>G, A, B,2 | G, A,2 E, A,2 | A,G,>G, C B,2 | %11
 G,F,A, B, G,2 | G,B,>A, G, A,2 | =A,C>B, A, B,2 | B,B,>A, G, A,2 | A, A,2 G, A,2- | A,6 |] %17
V:4
 A,,E,>E, z A,,2 | A,, D,2 D, A,,2 | A,, E,2 E,D,C, | B,, A,,2 C, E,2 | E, E,2 z A,,2 | %5
 A,,/A,,/ D,2 D, A,,2 | A,,A,,C, D, E,2 | E,/E,/ E,2 E, A,,2 | A,,E,>E, E, E,2 | E, A,,2 A,, A,,2 | %10
 A,,E,>E, E, E,2 | E, B,,2 B,, E,2 | E, E,2 .E,3 | F, F,2 .F,3 | B,,E,>E, E, C,2 | %15
 F, E,2 E, A,,2- | A,,6 |] %17

